X:1
T:Title
%%score { ( 1 3 4 ) | ( 2 5 ) }
L:1/8
M:4/4
K:Ab
V:1 treble nm="Grand Piano"
V:3 treble 
V:4 treble 
V:2 bass 
V:5 bass 
V:1
 z4 z2 [A,C][B,D] | [CE]2 [CA]2 [Ec]2 [CA]2 | [DF]4 [CE]2 EE | A2 A2 B2 B2 |[M:3/4] c6 | %5
[M:1/4] cd |[M:4/4] e2 c2 B2 c2 | B4 A2 AA | [=DA]2 [DF]2 [Dc]2 [DF]2 | B8 | A4 E4 | B4 E4 | %12
 [A,CA]2 [EB]2 c2 [A=d]2 |[M:3/4] G2 z2 z2 |[M:1/4] [DGe][DGe] |[M:4/4] e4 A4 | f4 A4 | %17
 [Ae]2 [EAc]2 [DGB]3 [CEA] |[M:3/4] [A,CEA]6 |] %19
V:2
 z4 z2 [A,,E,][A,,E,] | [A,,A,]2 [A,,A,]2 [A,,A,]2 [A,,A,]2 | [A,,A,]4 [A,,A,]2 [A,C][A,C] | %3
 [F,A,C]2 [F,A,C]2 [E,G,E]2 [E,G,E]2 |[M:3/4] [A,E]6 |[M:1/4] [A,E][A,B,E] | %6
[M:4/4] [A,CE]2 [A,CE]2 [G,C=E]2 [G,CE]2 | [F,DG]4 [F,CF]2 [F,CE][F,CE] | %8
 [B,,B,]2 [B,,B,]2 [B,,A,]2 [B,,A,]2 | [E,G,E]2 [F,A,]2 [G,B,]2 E,2 | %10
 A,,2 [B,,A,]2 [C,A,]2 [A,,A,]2 | [E,G,E]2 [F,A,]2 [G,B,]2 [E,G,]2 | z2 A,4 z2 | %13
[M:3/4] [E,B,]2 D,2 C,2 |[M:1/4] B,,B,, | %15
[M:4/4] [A,,CA]2[K:treble] [A,C]2 [A,C_G]2[K:bass] [A,C]2 | [D,A,]2 D,2 =D,2 D,2 | %17
 [E,C]2 E,2 E,3 A, |[M:3/4] A,,6 |] %19
V:3
 x8 | x8 | x8 | x8 |[M:3/4] x6 |[M:1/4] x2 |[M:4/4] x8 | x8 | x8 | z4 _D4 | [A,C]2 D2 z2 C2 | %11
 z2 =D2 z2 _D2 | x8 |[M:3/4] e2- [B,Ge-]2 [A,Ae]2 |[M:1/4] x2 |[M:4/4] z2 A2 z2 _G2 | %16
 F2 [B,F]2 [_CF]2 [CF]2 | x8 |[M:3/4] x6 |] %19
V:4
 x8 | x8 | x8 | x8 |[M:3/4] x6 |[M:1/4] x2 |[M:4/4] x8 | x8 | x8 | z2 =D2 z2 G,2 | x8 | x8 | x8 | %13
[M:3/4] x6 |[M:1/4] x2 |[M:4/4] x8 | x8 | x8 |[M:3/4] x6 |] %19
V:5
 x8 | x8 | x8 | x8 |[M:3/4] x6 |[M:1/4] x2 |[M:4/4] x8 | x8 | x8 | x8 | x8 | x8 | %12
 A,,2 z2 E2 [F,B,]2 |[M:3/4] x6 |[M:1/4] x2 |[M:4/4] x2[K:treble] x4[K:bass] x2 | x8 | x8 | %18
[M:3/4] x6 |] %19

